icons/src/scalable/default/status/network-vpn-disabled-symbolic.svg

<?xml version="1.0" encoding="UTF-8" standalone="no"?>
<svg
   height="16"
   width="16"
   version="1.1"
   id="svg4"
   sodipodi:docname="network-vpn-disabled-symbolic.svg"
   inkscape:version="1.1.1 (eb90963e84, 2021-10-02)"
   xmlns:inkscape="http://www.inkscape.org/namespaces/inkscape"
   xmlns:sodipodi="http://sodipodi.sourceforge.net/DTD/sodipodi-0.dtd"
   xmlns="http://www.w3.org/2000/svg"
   xmlns:svg="http://www.w3.org/2000/svg">
  <defs
     id="defs8" />
  <sodipodi:namedview
     id="namedview6"
     pagecolor="#ffffff"
     bordercolor="#666666"
     borderopacity="1.0"
     inkscape:pageshadow="2"
     inkscape:pageopacity="0.0"
     inkscape:pagecheckerboard="0"
     showgrid="false"
     inkscape:zoom="19.79899"
     inkscape:cx="-0.47982246"
     inkscape:cy="-0.53033009"
     inkscape:window-width="1920"
     inkscape:window-height="1016"
     inkscape:window-x="0"
     inkscape:window-y="27"
     inkscape:window-maximized="1"
     inkscape:current-layer="svg4">
    <inkscape:grid
       type="xygrid"
       id="grid10" />
  </sodipodi:namedview>
  <path
     id="path2"
     style="line-height:125%;-inkscape-font-specification:Ubuntu;text-align:center;fill:#bebebe;fill-opacity:1"
     d="M 14.646484 0.64648438 L 13.292969 2 L 9.5507812 5.7421875 L 8.8398438 6.453125 L 7.2929688 8 L 6 9.2929688 L 1.4433594 13.849609 L 0.64648438 14.646484 L 1.3535156 15.353516 L 2.7070312 14 C 2.7090639 14.000002 2.7108553 14 2.7128906 14 L 13.287109 14 C 14.345109 14 15.056875 13.775891 15.421875 13.337891 C 15.804875 12.881891 16 12.13375 16 11.09375 L 16 4.90625 C 16 3.86625 15.804875 3.1181094 15.421875 2.6621094 C 15.229706 2.4315064 14.939083 2.2628783 14.554688 2.1523438 L 15.353516 1.3535156 L 14.646484 0.64648438 z M 2.7128906 2 C 1.6548906 1.987 0.94507813 2.2241094 0.58007812 2.6621094 C 0.19707813 3.1181094 -2.220446e-16 3.86625 0 4.90625 L 0 11.09375 C 0 12.117795 0.19295106 12.856627 0.56445312 13.314453 L 3.0859375 10.792969 C 2.7482625 10.925365 2.3831857 11 2 11 L 1 11 L 1 5 L 2 5 L 2 10 C 3.11 10 4 9.11 4 8 L 4 5 L 5 5 L 5 8 C 5 8.3827738 4.9250126 8.7486772 4.7929688 9.0859375 L 6 7.8789062 L 6 6 L 6 5 L 8 5 C 8.2600035 5 8.5077981 5.0510274 8.7363281 5.1425781 L 11.878906 2 L 2.7128906 2 z M 11.707031 5 L 13 5 C 14.099 5 15 5.901 15 7 L 15 11 L 14 11 L 14 7 C 14 6.442 13.558 6 13 6 L 12 6 L 12 11 L 11 11 L 11 6 L 11 5.7070312 L 11.707031 5 z M 7 6 L 7 6.8789062 L 7.8789062 6 L 7 6 z M 9.9785156 6.7285156 C 9.9907989 6.8174708 10 6.9078271 10 7 C 10 8.099 9.099 9 8 9 L 7.7070312 9 L 9.9785156 6.7285156 z M 7 9.7070312 L 7 11 L 6 11 L 6 10.707031 L 7 9.7070312 z " />
</svg>

<svg version="1.1" viewBox="0 0 16 16" xmlns="http://www.w3.org/2000/svg">
 <path d="m14.646 0.64648-14 14 0.70703 0.70703 1.3535-1.3535c0.0020327 2e-6 0.0038241 0 0.0058594 0h10.574c1.058 0 1.7698-0.22411 2.1348-0.66211 0.383-0.456 0.57812-1.2041 0.57812-2.2441v-6.1875c0-1.04-0.19512-1.7881-0.57812-2.2441-0.19217-0.2306-0.48279-0.39923-0.86719-0.50977l0.79883-0.79883-0.70703-0.70703zm-11.934 1.3535c-1.058-0.013-1.7678 0.22411-2.1328 0.66211-0.383 0.456-0.58008 1.2041-0.58008 2.2441v6.1875c0 1.024 0.19295 1.7629 0.56445 2.2207l2.5215-2.5215c-0.33768 0.1324-0.70275 0.20703-1.0859 0.20703h-1v-6h1v5c1.11 0 2-0.89 2-2v-3h1v3c0 0.38277-0.074987 0.74868-0.20703 1.0859l1.207-1.207v-1.8789-1h2c0.26 0 0.5078 0.051027 0.73633 0.14258l3.1426-3.1426h-9.166zm8.9941 3h1.293c1.099 0 2 0.901 2 2v4h-1v-4c0-0.558-0.442-1-1-1h-1v5h-1v-5-0.29297l0.70703-0.70703zm-4.707 1v0.87891l0.87891-0.87891h-0.87891zm2.9785 0.72852c0.012283 0.088955 0.021484 0.17931 0.021484 0.27148 0 1.099-0.901 2-2 2h-0.29297l2.2715-2.2715zm-2.9785 2.9785v1.293h-1v-0.29297l1-1z" fill="#bebebe"/>
</svg>
